X:16
T: Ich sach mir einen blauen Storchen
N: L0071A
O: Europa, Mitteleuropa, Deutschland
N: Baseler Hs., 1544
R: Lied
M: 6/4
L: 1/4
K: G
d | d2dd_ee | d2dc2
c | g2=f2_ec | d2Gd2
d | d2_e2=fd | c3G2
A | _B2B2AA | G2DG2

@@@ Tune index: 5420
